images/icon-github.svg

<svg height="64" viewBox="0 0 64 64" width="64" xmlns="http://www.w3.org/2000/svg"><path d="m31.9970533 0c-17.6683139 0-31.9970533 14.3267749-31.9970533 32.0009822 0 14.1381872 9.16811443 26.1311888 21.8840357 30.3626263 1.6010314.2946683 2.1844747-.6934529 2.1844747-1.5420977 0-.7582799-.0275024-2.7718469-.043218-5.4415421-8.9009485 1.9330243-10.7789681-4.2903711-10.7789681-4.2903711-1.4556616-3.6971055-3.55370022-4.6812978-3.55370022-4.6812978-2.90542988-1.9841002.22001903-1.944811.22001903-1.944811 3.21188499.2259123 4.90131679 3.298321 4.90131679 3.298321 2.854354 4.88953 7.4904693 3.4770864 9.3134842 2.6579084.2907394-2.0666073 1.1177752-3.4770864 2.0312471-4.2766199-7.105436-.8073912-14.5762608-3.5537002-14.5762608-15.8158323 0-3.4928021 1.2474293-6.351085 3.2943921-8.5866355-.3300286-.8093558-1.4281593-4.0644587.3143129-8.4687683 0 0 2.6854108-.8604315 8.7987968 3.2806409 2.5518278-.7111329 5.290279-1.0647349 8.01105-1.0784861 2.7188066.0137512 5.4552933.3673532 8.0110501 1.0784861 6.109457-4.1410724 8.7909389-3.2806409 8.7909389-3.2806409 1.7464011 4.4043096.6482704 7.6594125.3202063 8.4687683 2.0508917 2.2355505 3.2884987 5.0938334 3.2884987 8.5866355 0 12.2935634-7.4826115 14.9986188-14.6096565 15.7902944 1.1472421.9881212 2.1707235 2.9407901 2.1707235 5.9267626 0 4.2766199-.0392891 7.7281685-.0392891 8.7771878 0 .8565026.5775499 1.8524816 2.2001903 1.5401332 12.706099-4.2412597 21.8663556-16.2264035 21.8663556-30.3606618 0-17.6742073-14.3287394-32.0009822-32.0029467-32.0009822" fill="#000000" fill-rule="evenodd"/></svg>

<?xml version="1.0" encoding="UTF-8"?>
<svg width="64px" height="64px" viewBox="0 0 64 64" version="1.1" xmlns="http://www.w3.org/2000/svg" xmlns:xlink="http://www.w3.org/1999/xlink">
    <!-- Generator: Sketch 52.6 (67491) - http://www.bohemiancoding.com/sketch -->
    <title>icon-github</title>
    <desc>Created with Sketch.</desc>
    <g id="icon-github" stroke="none" stroke-width="1" fill="none" fill-rule="evenodd">
        <path d="M31.9970533,0 C14.3287394,0 0,14.3267749 0,32.0009822 C0,46.1391694 9.16811443,58.132171 21.8840357,62.3636085 C23.4850671,62.6582768 24.0685104,61.6701556 24.0685104,60.8215108 C24.0685104,60.0632309 24.041008,58.0496639 24.0252924,55.3799687 C15.1243439,57.312993 13.2463243,51.0895976 13.2463243,51.0895976 C11.7906627,47.3924921 9.69262408,46.4082998 9.69262408,46.4082998 C6.7871942,44.4241996 9.91264311,44.4634888 9.91264311,44.4634888 C13.1245281,44.6894011 14.8139599,47.7618098 14.8139599,47.7618098 C17.6683139,52.6513398 22.3044292,51.2388962 24.1274441,50.4197182 C24.4181835,48.3531109 25.2452193,46.9426318 26.1586912,46.1430983 C19.0532552,45.3357071 11.5824304,42.5893981 11.5824304,30.327266 C11.5824304,26.8344639 12.8298597,23.976181 14.8768225,21.7406305 C14.5467939,20.9312747 13.4486632,17.6761718 15.1911354,13.2718622 C15.1911354,13.2718622 17.8765462,12.4114307 23.9899322,16.5525031 C26.54176,15.8413702 29.2802112,15.4877682 32.0009822,15.474017 C34.7197888,15.4877682 37.4562755,15.8413702 40.0120323,16.5525031 C46.1214893,12.4114307 48.8029712,13.2718622 48.8029712,13.2718622 C50.5493723,17.6761718 49.4512416,20.9312747 49.1231775,21.7406305 C51.1740692,23.976181 52.4116762,26.8344639 52.4116762,30.327266 C52.4116762,42.6208294 44.9290647,45.3258848 37.8020197,46.1175604 C38.9492618,47.1056816 39.9727432,49.0583505 39.9727432,52.044323 C39.9727432,56.3209429 39.9334541,59.7724915 39.9334541,60.8215108 C39.9334541,61.6780134 40.511004,62.6739924 42.1336444,62.361644 C54.8397434,58.1203843 64,46.1352405 64,32.0009822 C64,14.3267749 49.6712606,0 31.9970533,0" fill="#000000"></path>
    </g>
</svg>
